packages/elvis-assets-icons/icons/svg/src/cog.svg

<svg width="25" height="24" viewBox="0 0 25 24" fill="none" xmlns="http://www.w3.org/2000/svg">
<g clip-path="url(#clip0)">
<path d="M8.17468 24.0017C7.49841 24.0017 6.85115 23.7515 6.35195 23.2972C5.75371 22.7529 5.43158 21.9764 5.4686 21.1678L5.54063 19.7629C5.57464 19.0974 5.06144 18.5281 4.39617 18.493C4.37516 18.492 4.35415 18.491 4.33415 18.491C4.31314 18.491 4.29313 18.491 4.27212 18.493L2.87056 18.5641C2.82354 18.5661 2.77452 18.5681 2.72651 18.5681C2.05824 18.5681 1.41498 18.3209 0.916783 17.8716C0.379569 17.3873 0.0624424 16.7229 0.0244273 15.9994C-0.0185899 15.1818 0.305539 14.3983 0.911781 13.8489L1.9542 12.9083C2.19329 12.6922 2.33435 12.395 2.35136 12.0718C2.36736 11.7485 2.25732 11.4383 2.04123 11.1982C2.01422 11.1682 1.98521 11.1391 1.9542 11.1111L0.911781 10.1645C0.375567 9.67816 0.061442 9.01272 0.0264281 8.28923C-0.00958629 7.56675 0.239513 6.87329 0.725707 6.33693C1.23791 5.77156 1.9682 5.44734 2.72851 5.44734C2.77252 5.44734 2.81754 5.44834 2.86156 5.45034L4.26412 5.52139C4.28513 5.52339 4.32714 5.52339 4.32714 5.52339C4.9714 5.52339 5.50161 5.02005 5.53563 4.37863C5.53763 4.3366 5.53763 4.29357 5.53563 4.25154L5.4686 2.8446C5.39857 1.35061 6.55603 0.0787603 8.04863 0.00871365C8.09165 0.00671232 8.13466 0.00571165 8.17768 0.00571165C8.93798 0.00571165 9.66727 0.328927 10.1795 0.892303L11.1209 1.932C11.3379 2.17316 11.6341 2.31425 11.9562 2.33126C11.9782 2.33226 12.0002 2.33326 12.0222 2.33326C12.3233 2.33326 12.6014 2.22619 12.8275 2.02306C12.8585 1.99504 12.8876 1.96602 12.9146 1.935L13.8649 0.892303C14.3481 0.356946 15.0134 0.0417357 15.7367 0.00471099C15.7827 0.00270965 15.8277 0.00170898 15.8727 0.00170898C16.546 0.00170898 17.1923 0.249874 17.6915 0.701175C18.2987 1.24954 18.6228 2.03306 18.5808 2.85061L18.5098 4.25154C18.4768 4.91699 18.991 5.48536 19.6563 5.51939C19.6773 5.52039 19.6973 5.52139 19.7173 5.52139C19.7363 5.52139 19.7553 5.52139 19.7743 5.52039L21.1749 5.44934C21.2219 5.44734 21.2669 5.44634 21.3129 5.44634C21.9852 5.44634 22.6294 5.6955 23.1286 6.14881C23.6649 6.63513 23.98 7.30158 24.016 8.02406C24.056 8.8396 23.7319 9.62112 23.1266 10.1685L22.0842 11.1091C21.8451 11.3253 21.7041 11.6225 21.6881 11.9457C21.6711 12.2689 21.7821 12.5791 21.9982 12.8183C22.0262 12.8493 22.0542 12.8783 22.0842 12.9043L23.1266 13.8459C23.6639 14.3313 23.98 14.9967 24.017 15.7202C24.054 16.4437 23.8069 17.1381 23.3217 17.6745C22.8085 18.2419 22.0742 18.5671 21.3059 18.5671C21.2629 18.5671 21.2189 18.5661 21.1749 18.5641L19.7723 18.493C19.7503 18.492 19.7283 18.491 19.7063 18.491C19.4042 18.491 19.126 18.5991 18.9 18.8022C18.6599 19.0184 18.5188 19.3146 18.5028 19.6378C18.5008 19.6788 18.5008 19.7209 18.5028 19.7629L18.5738 21.1638C18.6058 21.8893 18.3547 22.5828 17.8655 23.1181C17.3764 23.6535 16.7091 23.9657 15.9868 23.9977C15.9438 23.9997 15.8988 24.0007 15.8537 24.0007C15.1034 24.0007 14.3792 23.6795 13.8669 23.1201L12.9226 22.0754C12.6935 21.8223 12.3664 21.6772 12.0232 21.6772C11.7231 21.6772 11.436 21.7872 11.2139 21.9884C11.1839 22.0154 11.1539 22.0444 11.1269 22.0754L10.1805 23.1181C9.66827 23.6795 8.93698 24.0017 8.17468 24.0017ZM4.33415 16.991C4.38016 16.991 4.42618 16.992 4.4722 16.995C5.9648 17.0721 7.11626 18.3489 7.03923 19.8409L6.9672 21.2419C6.95119 21.5991 7.09425 21.9453 7.36135 22.1885C7.58744 22.3946 7.86856 22.5027 8.17368 22.5027C8.19369 22.5027 8.21269 22.5027 8.2327 22.5017C8.55483 22.4867 8.85295 22.3466 9.07004 22.1074L10.0144 21.0668C10.0744 20.9997 10.1395 20.9347 10.2075 20.8726C10.7067 20.4223 11.3509 20.1742 12.0232 20.1742C12.7895 20.1742 13.5228 20.4994 14.036 21.0668L14.9774 22.1084C15.2035 22.3556 15.5296 22.4977 15.8738 22.4977L15.9228 22.4967C16.587 22.4667 17.1052 21.9003 17.0752 21.2339L17.0042 19.8379C16.9992 19.7459 16.9992 19.6528 17.0042 19.5597C17.0412 18.8373 17.3573 18.1718 17.8946 17.6875C18.3938 17.2372 19.036 16.989 19.7043 16.989C19.7523 16.989 19.8003 16.99 19.8493 16.993L21.2489 17.0641C21.2729 17.0651 21.2959 17.0661 21.3179 17.0661C21.6541 17.0661 21.9782 16.921 22.2073 16.6668C22.4244 16.4267 22.5344 16.1165 22.5184 15.7942C22.5024 15.471 22.3613 15.1748 22.1212 14.9577L21.0788 14.0171C21.0108 13.956 20.9458 13.891 20.8838 13.8219C19.8824 12.7132 19.9694 10.995 21.0788 9.99237L22.1212 9.05174C22.3914 8.80758 22.5354 8.45935 22.5174 8.09511C22.5014 7.77189 22.3613 7.47469 22.1212 7.25755C21.8982 7.05541 21.611 6.94434 21.3119 6.94434C21.2909 6.94434 21.2709 6.94534 21.2499 6.94634L19.8503 7.01739C19.8063 7.01939 19.7613 7.02039 19.7173 7.02039C19.6713 7.02039 19.6252 7.01939 19.5802 7.01639C18.0886 6.94134 16.9362 5.66648 17.0112 4.17449L17.0822 2.77256C17.1012 2.40731 16.9562 2.05808 16.6851 1.81392C16.459 1.60878 16.1819 1.50171 15.8828 1.50171C15.8607 1.50171 15.8377 1.50271 15.8147 1.50371C15.4906 1.51972 15.1935 1.66082 14.9774 1.90098L14.029 2.94167C13.97 3.00771 13.903 3.07476 13.8329 3.1378C13.3347 3.5871 12.6905 3.83426 12.0182 3.83426C11.9722 3.83426 11.9262 3.83326 11.8802 3.83126C11.1569 3.79324 10.4926 3.47703 10.0084 2.93967L9.06904 1.90098C8.84095 1.65081 8.51481 1.50671 8.17468 1.50671C8.15567 1.50671 8.13666 1.50671 8.11766 1.50771C7.45239 1.53873 6.93618 2.10711 6.9672 2.77356L7.03422 4.17449C7.03923 4.26555 7.03923 4.36162 7.03422 4.45768C6.95819 5.89664 5.76972 7.02439 4.32814 7.02439C4.28113 7.02439 4.23411 7.02339 4.18709 7.02039L2.78753 6.95034C2.76952 6.94934 2.74951 6.94834 2.73051 6.94834C2.39137 6.94834 2.06524 7.09344 1.83715 7.3446C1.62006 7.58376 1.50902 7.89297 1.52503 8.21518C1.54103 8.5374 1.68109 8.8346 1.92018 9.05174L2.9616 9.99737C3.02863 10.0584 3.09365 10.1225 3.15468 10.1915C4.15608 11.3012 4.06904 13.0194 2.9596 14.0211L1.91818 14.9617C1.64807 15.2058 1.50402 15.5561 1.52303 15.9203C1.54003 16.2425 1.68109 16.5397 1.92118 16.7559C2.14327 16.956 2.43039 17.0661 2.72851 17.0661C2.74951 17.0661 2.77152 17.0661 2.79253 17.0641L4.19409 16.993C4.24111 16.992 4.28713 16.991 4.33415 16.991Z" fill="black"/>
<path d="M12.0202 17.2592C9.12401 17.2592 6.76807 14.9026 6.76807 12.0057C6.76807 9.10877 9.12401 6.7522 12.0202 6.7522C14.9163 6.7522 17.2723 9.10877 17.2723 12.0057C17.2723 14.9026 14.9163 17.2592 12.0202 17.2592ZM12.0202 8.2532C9.95134 8.2532 8.26867 9.93632 8.26867 12.0057C8.26867 14.0751 9.95134 15.7582 12.0202 15.7582C14.089 15.7582 15.7717 14.0751 15.7717 12.0057C15.7717 9.93632 14.089 8.2532 12.0202 8.2532Z" fill="black"/>
</g>
<defs>
<clipPath id="clip0">
<path d="M0.0206299 0H24.0206V24H0.0206299V0Z" fill="white"/>
</clipPath>
</defs>
</svg>

<svg width="25" height="24" fill="none" xmlns="http://www.w3.org/2000/svg"><g clip-path="url(#clip0)" fill="#000"><path d="M8.175 24.002c-.677 0-1.324-.25-1.823-.705a2.704 2.704 0 01-.883-2.13l.072-1.404a1.211 1.211 0 00-1.145-1.27l-.062-.002c-.02 0-.04 0-.062.002l-1.401.071a2.7 2.7 0 01-1.954-.692 2.694 2.694 0 01-.893-1.873 2.7 2.7 0 01.888-2.15l1.042-.94c.24-.217.38-.514.397-.837a1.208 1.208 0 00-.397-.96l-1.042-.947a2.69 2.69 0 01-.886-1.876A2.709 2.709 0 012.861 5.45l1.403.071a1.21 1.21 0 001.272-1.27l-.067-1.406A2.714 2.714 0 018.178.005c.76 0 1.49.324 2.002.887l.94 1.04a1.2 1.2 0 00.902.401 1.187 1.187 0 00.893-.398l.95-1.043a2.69 2.69 0 012.008-.89A2.707 2.707 0 0118.58 2.85l-.071 1.4a1.211 1.211 0 001.146 1.268l.061.002h.057l1.4-.072.139-.003c.672 0 1.316.25 1.816.703.536.486.851 1.153.887 1.875a2.702 2.702 0 01-.89 2.145l-1.042.94a1.2 1.2 0 00-.396.837 1.2 1.2 0 00.396.958l1.043.942c.537.485.853 1.15.89 1.874a2.69 2.69 0 01-.695 1.954 2.72 2.72 0 01-2.147.89l-1.403-.071-.066-.002c-.302 0-.58.108-.806.311a1.196 1.196 0 00-.397.96l.07 1.402a2.7 2.7 0 01-.707 1.954 2.69 2.69 0 01-2.012.883c-.75 0-1.475-.322-1.987-.88l-.944-1.046a1.214 1.214 0 00-1.796 0l-.947 1.043a2.72 2.72 0 01-2.005.884zm-3.84-7.011a2.713 2.713 0 012.705 2.85l-.073 1.4a1.206 1.206 0 001.207 1.262l.059-.001a1.2 1.2 0 00.837-.395l.944-1.04a2.705 2.705 0 012.009-.893c.767 0 1.5.325 2.013.893l.941 1.041c.226.248.553.39.897.39l.049-.001a1.211 1.211 0 001.152-1.263l-.07-1.396a2.69 2.69 0 01.89-2.15 2.698 2.698 0 011.954-.695l1.4.071.069.002a1.2 1.2 0 00.89-.4c.216-.24.326-.55.31-.872a1.2 1.2 0 00-.397-.836l-1.042-.94a2.715 2.715 0 010-4.025l1.042-.941c.27-.244.414-.593.396-.957a1.2 1.2 0 00-.396-.837 1.203 1.203 0 00-.81-.314l-.061.002-1.4.071a2.95 2.95 0 01-.27 0 2.712 2.712 0 01-2.569-2.843l.071-1.401a1.2 1.2 0 00-.397-.96 1.176 1.176 0 00-.87-.31 1.197 1.197 0 00-.838.398l-.948 1.04a2.704 2.704 0 01-2.149.89 2.692 2.692 0 01-1.872-.891L9.07 1.9a1.213 1.213 0 00-.894-.394h-.057c-.666.032-1.182.6-1.15 1.267l.066 1.4A2.71 2.71 0 014.187 7.02l-1.4-.07a1.21 1.21 0 00-1.262 1.265c.016.322.156.62.395.837l1.042.945a2.715 2.715 0 01-.002 4.024l-1.042.94c-.27.245-.414.595-.395.96a1.205 1.205 0 001.205 1.146c.022 0 .044 0 .065-.003l1.401-.071.14-.002z"/><path d="M12.02 17.26a5.259 5.259 0 01-5.252-5.254 5.259 5.259 0 015.252-5.254 5.259 5.259 0 015.252 5.254 5.259 5.259 0 01-5.252 5.253zm0-9.007a3.756 3.756 0 00-3.751 3.753 3.756 3.756 0 003.751 3.752 3.756 3.756 0 003.752-3.752 3.756 3.756 0 00-3.752-3.753z"/></g><defs><clipPath id="clip0"><path d="M.02 0h24v24h-24V0z" fill="#fff"/></clipPath></defs></svg>
